X: 31933
T: Pear Tree, The
R: hornpipe
M: 4/4
K: Dmajor
|:DFAG FAdf|(3efg ce fdAG|FdAF EBGE|F^EFG E2FE|
DFAG FAdf|(3efg ce fdAG|FdAF EBGE|1 :(3EFE DAD2 z2:|2 : (3EFE DAD2 de||
|:f^efd AdFd|(3Bcd Gd AdFd|f^efd ABcd|e^def (3efe =de|
f^efd AdFd|(3Bcd Ad GdFd|BcdB cdec|1 dzfed2 de:|2 degfd2z2||

